svgs/sharp-regular/magnet.svg

<svg xmlns="http://www.w3.org/2000/svg" viewBox="0 0 448 512"><!--! Font Awesome Pro 6.6.0 by @fontawesome - https://fontawesome.com License - https://fontawesome.com/license (Commercial License) Copyright 2024 Fonticons, Inc. --><path d="M0 32l24 0 112 0 24 0 0 24 0 200c0 35.3 28.7 64 64 64s64-28.7 64-64l0-200 0-24 24 0 112 0 24 0 0 24 0 200c0 123.7-100.3 224-224 224S0 379.7 0 256L0 56 0 32zM48 256c0 97.2 78.8 176 176 176s176-78.8 176-176l0-64-64 0 0 64c0 61.9-50.1 112-112 112s-112-50.1-112-112l0-64-64 0 0 64z"/></svg>

<svg xmlns="http://www.w3.org/2000/svg" viewBox="0 0 448 512"><!--! Font Awesome Pro 6.4.2 by @fontawesome - https://fontawesome.com License - https://fontawesome.com/license (Commercial License) Copyright 2023 Fonticons, Inc. --><path d="M0 32H24 136h24V56 256c0 35.3 28.7 64 64 64s64-28.7 64-64V56 32h24H424h24V56 256c0 123.7-100.3 224-224 224S0 379.7 0 256V56 32zM48 256c0 97.2 78.8 176 176 176s176-78.8 176-176V192H336v64c0 61.9-50.1 112-112 112s-112-50.1-112-112V192H48v64z"/></svg>
